src/icons/arrow-send.svg

<svg viewBox="0 0 24 24" fill="none" xmlns="http://www.w3.org/2000/svg">
<path d="M18.0314 5.95549C17.8399 5.76401 17.5655 5.65551 17.2782 5.66189L8.85952 5.66827C8.55954 5.67465 8.32338 5.77039 8.13828 5.95549C7.73618 6.3576 7.72979 6.93842 8.11914 7.32776C8.32338 7.532 8.5723 7.62775 8.83399 7.62136L11.7253 7.64051L15.2677 7.48094L13.6912 8.87874L5.95542 16.6145C5.53416 17.0358 5.53416 17.623 5.94903 18.0379C6.37029 18.4591 6.95749 18.4591 7.37875 18.0379L15.1145 10.3021L16.5059 8.73194L16.3528 12.2679L16.3719 15.1593C16.3655 15.421 16.4613 15.6699 16.6655 15.8741C17.0548 16.2635 17.6357 16.2571 18.0378 15.855C18.2229 15.6699 18.325 15.4273 18.3314 15.1018V6.71503C18.3378 6.42781 18.2293 6.15335 18.0314 5.95549Z" fill="currentColor"/>
</svg>

<svg viewBox="0 0 24 24" fill="none" xmlns="http://www.w3.org/2000/svg"><path d="M18.031 5.955a1.035 1.035 0 0 0-.753-.293l-8.418.006c-.3.007-.537.102-.722.287-.402.403-.408.983-.019 1.373.204.204.453.3.715.293l2.891.02 3.543-.16-1.577 1.398-7.736 7.736c-.42.42-.42 1.008-.006 1.423.421.421 1.008.421 1.43 0l7.736-7.736 1.39-1.57-.152 3.536.019 2.891c-.006.262.09.51.294.715.389.39.97.383 1.372-.019.185-.185.287-.428.293-.753V6.715a1.04 1.04 0 0 0-.3-.76z" fill="currentColor"/></svg>
